X: 1487
T: Andrew Carr
R: slip jig
M: 9/8
K: Dmajor
"D"d2B AFA AFA|"D"d2d def "G"g2e|"D"d2B AFA AFA|"D"d2 D "A"DEF "D"E2D:|
|:"D"F2A AFA AFA|"G"G2 B BGB Bcd|"D"F2A AFA AFA|1 d2D DEF E2D:|2 d2 zz2 z4||

